public/formular-icons/greece/lower-upsilon.svg

<svg style="vertical-align:-.023ex" xmlns="http://www.w3.org/2000/svg" width="1.222ex" height="1.025ex" viewBox="0 -443 540 453" xmlns:xlink="http://www.w3.org/1999/xlink"><defs><path id="a" d="M413 384q0 22 19 40t41 19q19 0 34-18t16-58q0-33-15-97t-40-117q-44-90-95-126t-91-37h-14q-48 0-82 12t-51 34-24 42-7 43q0 49 34 141t35 117v14q0 3-4 7t-11 4h-4q-23 0-42-19t-30-41-17-42-8-22q-2-2-16-2H27q-6 6-6 9 0 12 13 46t48 71 79 37q39 0 64-22t25-64q-2-19-3-21 0-3-15-43t-31-92-16-81q0-50 26-71t64-21q42 0 80 31t61 75 36 84 13 61q0 24-8 41t-18 25-18 18-8 23Z"/></defs><g stroke="currentColor" fill="currentColor" stroke-width="0"><use data-c="1D710" xlink:href="#a" transform="scale(1 -1)"/></g></svg>

<svg style="vertical-align: -0.023ex" xmlns="http://www.w3.org/2000/svg" width="1.222ex" height="1.025ex" role="img" focusable="false" viewBox="0 -443 540 453" xmlns:xlink="http://www.w3.org/1999/xlink"><defs><path id="MJX-125-TEX-I-1D710" d="M413 384Q413 406 432 424T473 443Q492 443 507 425T523 367Q523 334 508 270T468 153Q424 63 373 27T282 -10H268Q220 -10 186 2T135 36T111 78T104 121Q104 170 138 262T173 379Q173 380 173 381Q173 390 173 393T169 400T158 404H154Q131 404 112 385T82 344T65 302T57 280Q55 278 41 278H27Q21 284 21 287Q21 299 34 333T82 404T161 441Q200 441 225 419T250 355Q248 336 247 334Q247 331 232 291T201 199T185 118Q185 68 211 47T275 26Q317 26 355 57T416 132T452 216T465 277Q465 301 457 318T439 343T421 361T413 384Z"></path></defs><g stroke="currentColor" fill="currentColor" stroke-width="0" transform="scale(1,-1)"><g data-mml-node="math"><g data-mml-node="mi"><use data-c="1D710" xlink:href="#MJX-125-TEX-I-1D710"></use></g></g></g></svg>
